X:1
T:Title
%%score { 1 | ( 2 3 ) }
L:1/8
M:3/4
K:G
V:1 treble nm="Grand Piano"
V:2 bass 
V:3 bass 
V:1
 z2 z2[Q:1/4=100] D2 | [DB]3 [CA] [B,G][CF] | [DG]4 [B,D]2 | [CE]3 [CF] [EG][EA] | G2 F2 D2 | %5
 [DG]>[DA] [DB]2 [DG]2 | A>B c2 [DB]2 | [DA]3 [DF] [^CG][CE] |[M:2/4] D4 |[M:1/4] [Fc]2 | %10
[M:3/4] [DGB]3 [CEA] [B,DG][A,DF] | [B,DG]4 [B,D]2 | [Fc]3 [FB] [A,FA][B,=F^G] | [DFA]4 [F,D]2 | %14
 [G,DG]>[DA] [GB]2 [DG]2 | [DA]>[GB] [Fc]2 A2 | d3 B G>B |[M:2/4] [DFA]4 |[M:1/4] [CD]2 | %19
[M:3/4] [B,DG]2 z2 [B,DG]2 | [DFA]2 z2 [Fe]2 | [Gd]3 [GB] [Fc]>[CFA] |[M:2/4] [B,DG]4 |] %23
V:2
 z2 z2 D,2 | [G,,G,]3 [G,,D,] [G,,D,][A,,D,] | [A,,G,]4 [G,,G,]2 | [C,G,]3 [A,,A,] [B,,G,][C,C] | %4
 B,2 z2 z2 | [B,,G,]>[A,,F,] [G,,G,]2 [B,,G,]2 | [D,F,D]>[D,G,D] [D,A,D]2 [G,,G,]2 | %7
 [A,,F,]3 [A,,F,] [A,,E,][A,,G,] |[M:2/4] [D,F,]4 |[M:1/4] A, z |[M:3/4] G,3 C, D,D, | G,,4 G,2 | %12
 [D,A,]3 [D,A,] D,D, | D,4 C,2 | B,,>[A,,F,] [G,,G,]2 [B,,G,]2 | %15
 [D,F,]>[D,G,] [D,A,]2[K:treble] [A,CF]2 | [G,B,G]3 [G,DG] [B,D]>[G,DG] |[M:2/4][K:bass] D,4 | %18
[M:1/4] D,2 |[M:3/4] G,,>[K:treble]G B2[K:bass] G,2 | D,>[K:treble]B c2[K:bass] [D,C]2 | %21
 [G,B,]3 [G,B,] [D,A,]>D, |[M:2/4] G,,4 |] %23
V:3
 x6 | x6 | x6 | x6 | [D,D]2- [D,A,D]2 [C,F,]2 | x6 | x6 | x6 |[M:2/4] x4 |[M:1/4] D,-[D,D] | %10
[M:3/4] x6 | x6 | x6 | x6 | x6 | x4[K:treble] x2 | x6 |[M:2/4][K:bass] x4 |[M:1/4] x2 | %19
[M:3/4] x3/2[K:treble] x5/2[K:bass] x2 | x3/2[K:treble] x5/2[K:bass] x2 | x6 |[M:2/4] x4 |] %23

